X:78
T:
S:Uppt. efter Jakob Pettersson, Gebjenne i Burs.
M:2/4
L:1/8
K:F
A> A A G|G> F F A|B> c B A|G2 z2|
w:Far min var en må-la-re, en må-lar-son är ja.
G> A G F|(EC) E G|G> c c B|A> G F G|
w:Far min må-lar möb--ler, men flic-kor må-lar ja. Man le-ver
A2 A> A|A A G F|B2 B> B|d3 c|c2 z c|
w:lugnt mä var-ann, man le-ver lugnt mä var-ann. Hur-ra för
f c A F|c> B G E|F2 z2|]
w:al-la gla-da flic-kor-na, hur-ra!
